symbols/web/chat/materialsymbolsrounded/chat_wght100gradN25_40px.svg

<svg xmlns="http://www.w3.org/2000/svg" height="40" width="40"><path d="M11.625 22.208H21.75q.167 0 .292-.146.125-.145.125-.354 0-.166-.146-.312t-.313-.146H11.583q-.208 0-.333.167-.125.166-.125.333 0 .208.146.333.146.125.354.125Zm0-5.083h16.833q.167 0 .292-.125.125-.125.125-.333 0-.209-.146-.355-.146-.145-.312-.145H11.583q-.208 0-.333.166-.125.167-.125.334 0 .208.146.333.146.125.354.125Zm0-5.042h16.833q.167 0 .292-.145.125-.146.125-.355 0-.208-.146-.333-.146-.125-.312-.125H11.583q-.208 0-.333.146-.125.146-.125.312 0 .209.146.355.146.145.354.145ZM5.583 29.625V7.833q0-.916.667-1.604.667-.687 1.625-.687h24.25q.958 0 1.625.687.667.688.667 1.604V25.5q0 .917-.667 1.604-.667.688-1.625.688H10.208L7.5 30.458q-.542.542-1.229.25-.688-.291-.688-1.083Zm.959.417 3.208-3.25h22.375q.583 0 .958-.375t.375-.959V7.875q0-.583-.375-.958t-.958-.375H7.875q-.583 0-.958.375t-.375.958Zm0-22.167V6.542 30.042Z"/></svg>

<svg xmlns="http://www.w3.org/2000/svg" height="40" width="40"><path d="M11.625 22.208H21.75Q21.917 22.208 22.042 22.062Q22.167 21.917 22.167 21.708Q22.167 21.542 22.021 21.396Q21.875 21.25 21.708 21.25H11.583Q11.375 21.25 11.25 21.417Q11.125 21.583 11.125 21.75Q11.125 21.958 11.271 22.083Q11.417 22.208 11.625 22.208ZM11.625 17.125H28.458Q28.625 17.125 28.75 17Q28.875 16.875 28.875 16.667Q28.875 16.458 28.729 16.312Q28.583 16.167 28.417 16.167H11.583Q11.375 16.167 11.25 16.333Q11.125 16.5 11.125 16.667Q11.125 16.875 11.271 17Q11.417 17.125 11.625 17.125ZM11.625 12.083H28.458Q28.625 12.083 28.75 11.938Q28.875 11.792 28.875 11.583Q28.875 11.375 28.729 11.25Q28.583 11.125 28.417 11.125H11.583Q11.375 11.125 11.25 11.271Q11.125 11.417 11.125 11.583Q11.125 11.792 11.271 11.938Q11.417 12.083 11.625 12.083ZM5.583 29.625V7.833Q5.583 6.917 6.25 6.229Q6.917 5.542 7.875 5.542H32.125Q33.083 5.542 33.75 6.229Q34.417 6.917 34.417 7.833V25.5Q34.417 26.417 33.75 27.104Q33.083 27.792 32.125 27.792H10.208L7.5 30.458Q6.958 31 6.271 30.708Q5.583 30.417 5.583 29.625ZM6.542 30.042 9.75 26.792H32.125Q32.708 26.792 33.083 26.417Q33.458 26.042 33.458 25.458V7.875Q33.458 7.292 33.083 6.917Q32.708 6.542 32.125 6.542H7.875Q7.292 6.542 6.917 6.917Q6.542 7.292 6.542 7.875ZM6.542 7.875Q6.542 7.292 6.542 6.917Q6.542 6.542 6.542 6.542Q6.542 6.542 6.542 6.917Q6.542 7.292 6.542 7.875V25.458Q6.542 26.042 6.542 26.417Q6.542 26.792 6.542 26.792V30.042Z"/></svg>
